X: 1171
T: İstedik Şûh-i Acem`den Bûselik
C: Ahmet Avni Konuk
O: Turkey
F: http://compmusic.upf.edu/node/140
N: acembuselik--kupe--agiraksak--istedik--ahmet_avni_konuk
N: makam= acembuselik
N: form= kupe
N: usul= agiraksak = 9/4
M: 9/4
L: 1/16
K: C    
Q: 1/4=60
%%MIDI tuningsystem comma53
f8 z2c4c2 f8 g4 a4 g2f2  | f2e2 e2d2 z2d4d2 d2e2 e2d2 d2c2 c2B2 e2dc  | 
w:  Ah  is te dik  şûh_  |  *  *  *  *  i  A cem *  *  *  den   | 
c8 z2d4e2 f8 g4 a2g2 f4  | z4 g2_b2 a4 g4 f3e d2e2 f6c2 d2e2  | 
w:  *  Bû se lik  bir   |  hoş  *  *  ma kam    | 
f8 z2e4f2 g4 a4 _b4 a4 g4  | g2f2 f2e2 e2f2 e2d2 d2_7/8e2 d2e2 g3^f e2d2 c3B  | 
w:  *  Per de  aç *  tı   |  nâz  *  *  *  i *  *  *  le  *  *  *  lût  | 
c8 z2c2 B2c2 d4 e4 e2f2 e4 d4  | c3B A2B2 c2d2 c2B2 B2A2 A2^G2 A8 z4  | 
w:  *  fet *  ti  gös *  ter  |  di  *  *  *  *  *  ta *  mam    | 
|


